X: 126
T:I Truly Understand
M:4/4
L:1/8
Q:90
C:Traditional
S:Transcribed from Tim O'Brien version
R:Air
K:D
|:[A4A4][A3c3][AB]|[AA][FA]((3[EA][FA][EA][D2A2])[EA][FA]|[A4A4][A2c2]((
3[AB][Ac][AB]|[A2A2])[E4A4][EA][FA]|[A4A4][A3c3][AB]|!
[AA]([FA](3[EA][FA][EA][D2A2])DE|[F4A4][F3A3][EA]|[D2A2][B6D6][G,D]|[A,2
D2][D2B2]AF((3[EA][FA][EA]|[D3A3])DE:|!
[F4A4][FA][GA][FA][DA]|[E4A4][EA][FA][E2A2]|[D3A3][EA] [DA][G,D][B,D][G,
D]|[A,4D4][G,2D2][A,2D2]|!
B,4(B2(3BcB| A2) F2 ED C2| [D4A4]F2(3EFE|[D6A6] D-E:|
